X:910
T:Ashokan farewell
R:Waltz
C:Jay Ungar
S:The Waltz Book
Z:Transcription:John Erdman,slight rearrangement, chords:Mike Long
M:3/4
L:1/8
K:D
Ac|\
"D"d3 c BA|"D7"F4 EF|"G"G3 F ED|"Em"B,2 D3 B,|\
"D"A,2 D2 F2|"F#m"A2 d2 f2|"G"f3 g f2|"A"e4 Ac|\
"D"d3 c BA|"D7"F4 EF|
"G"G3 F ED|"Em"B,2 D3 B,|\
"D"A,2 D2 F2|"(Bm)"A2 d2 f2|"A"A2 c2 e2|"D"d4|]\
FG|\
"D"A3 F D2|"(Bm)"d4 A2|"G"B3 c d2|"D"A F3 E2|\
"D"F3 E D2|
"G"B,4 G,2|"A"A,6|A4 FE|\
"D"D2 F2 A2|"C"=c4 d2|"G"B3 c d2|"D"A2 F3 D|\
"D"A,2 D2 F2|"(Bm)"A2 d2 F2|"A"E3 D C2|"D"D4|]
